X: 21
M: 2/4
L: 1/8
T: Achakeh Lo
K: Fm
|: CFG \
| "Fm"A4- | AC FG \
| A4- | AC FG \
| A2 A2 | A2 B>A \
| "C7"AG3- | GC =EF 
| "C7"G4- | GC =EF \
| G4- | GC =EF \
| G2 G2 | G2 A>G \
| "Fm"GF3- | "^fine"F :|
|: z2 c \
| "Ab"cc cc | cc dc \
| "Bbm"BB BB | BB cB \
| "Fm"AA AA | Ac BA \
| "C7"A G3- | G :|



